X: 0942
T: LOUISVILLE MARCH
B: Oliver Ditson "The Boston Collection of Instrumental Music" 1910 p.94 #2
F: http://conquest.imslp.info/files/imglnks/usimg/8/8f/IMSLP175643-PMLP309456-bostoncollection00bost_bw.pdf
%: 2012 John Chambers <jc:trillian.mit.edu>
M: 4/4
L: 1/8
K: F
|:\
f2f>f f2g/f/e/d/ | c2A>A A2c>A | B>Bd>B A>Ac>A | G2c>c c2de |\
f2f>f f2g/f/e/d/ | c2A>A A2c>A | (3Bdc (3BAG F2E2 | F2F>F F2 H:|
[A2F2][AF]>[AF] [A2F2][G2C2] | [F2A,2] [FA,]>[FA,] [F2A,2][G2C2] |\
[AF]>[AF][cA]>[cA] [BG]>[BG][AF]>[AF] | [G2C2][GC]>[GC] [G2C2]c2 |\
[A2F2][AF]>[AF] [A2F2][G2C2] | [F2A,2] [FA,]>[FA,] [F2A,2]c2 |\
f>f c>c A>A F>F | c2c>c "da Capo"c2de |]

%%sep 1 1 500
%%sep 1 1 500
